icons/svg/volume-medium.svg

﻿<?xml version="1.0" encoding="utf-8"?>
<!DOCTYPE svg PUBLIC "-//W3C//DTD SVG 1.1//EN" "http://www.w3.org/Graphics/SVG/1.1/DTD/svg11.dtd">
<svg xmlns="http://www.w3.org/2000/svg" xmlns:xlink="http://www.w3.org/1999/xlink" version="1.1" baseProfile="full" width="24" height="24" viewBox="0 0 24.00 24.00" enable-background="new 0 0 24.00 24.00" xml:space="preserve">
	<path fill="#000000" fill-opacity="1" stroke-width="0.2" stroke-linejoin="round" d="M 4.9994,8.99805L 4.9994,14.998L 8.9994,14.998L 13.9994,19.998L 13.9994,3.99805L 8.9994,8.99805M 18.4994,11.998C 18.4994,10.2321 17.4794,8.70807 15.9994,7.97107L 15.9994,16.025C 17.4794,15.288 18.4994,13.764 18.4994,11.998 Z "/>
</svg>

<svg xmlns="http://www.w3.org/2000/svg" version="1.1" baseProfile="full" width="24" height="24" viewBox="0 0 24.00 24.00" xml:space="preserve"><path fill="#000" fill-opacity="1" stroke-width=".2" stroke-linejoin="round" d="M5 8.998v6h4l5 5v-16l-5 5m9.5 3c0-1.766-1.02-3.29-2.5-4.027v8.055c1.48-.737 2.5-2.26 2.5-4.027z"/></svg>
